icons/svg/poi_colored/military_naval_base.svg

<?xml version="1.0" encoding="UTF-8" standalone="no"?>
<!-- Created with Inkscape (http://www.inkscape.org/) -->

<svg
   xmlns:dc="http://purl.org/dc/elements/1.1/"
   xmlns:cc="http://creativecommons.org/ns#"
   xmlns:rdf="http://www.w3.org/1999/02/22-rdf-syntax-ns#"
   xmlns:svg="http://www.w3.org/2000/svg"
   xmlns="http://www.w3.org/2000/svg"
   xmlns:sodipodi="http://sodipodi.sourceforge.net/DTD/sodipodi-0.dtd"
   xmlns:inkscape="http://www.inkscape.org/namespaces/inkscape"
   version="1.0"
   width="580"
   height="580"
   id="svg2"
   sodipodi:version="0.32"
   inkscape:version="0.91 r"
   sodipodi:docname="military_naval_base.svg"
   inkscape:output_extension="org.inkscape.output.svg.inkscape">
  <metadata
     id="metadata2975">
    <rdf:RDF>
      <cc:Work
         rdf:about="">
        <dc:format>image/svg+xml</dc:format>
        <dc:type
           rdf:resource="http://purl.org/dc/dcmitype/StillImage" />
        <cc:license
           rdf:resource="http://web.resource.org/cc/PublicDomain" />
        <dc:language>en</dc:language>
        <dc:title />
      </cc:Work>
    </rdf:RDF>
  </metadata>
  <sodipodi:namedview
     inkscape:window-height="739"
     inkscape:window-width="1332"
     inkscape:pageshadow="2"
     inkscape:pageopacity="0.0"
     guidetolerance="10.0"
     gridtolerance="10.0"
     objecttolerance="10.0"
     borderopacity="1.0"
     bordercolor="#666666"
     pagecolor="#ffffff"
     id="base"
     inkscape:zoom="0.3535534"
     inkscape:cx="-208.79879"
     inkscape:cy="192.41374"
     inkscape:window-x="34"
     inkscape:window-y="1024"
     inkscape:current-layer="svg2"
     showgrid="false"
     inkscape:window-maximized="1"
     inkscape:snap-global="false"
     inkscape:snap-intersection-paths="true"
     inkscape:object-paths="true"
     inkscape:object-nodes="true"
     inkscape:snap-smooth-nodes="true" />
  <defs
     id="defs4">
    <inkscape:perspective
       sodipodi:type="inkscape:persp3d"
       inkscape:vp_x="0 : 290 : 1"
       inkscape:vp_y="0 : 1000 : 0"
       inkscape:vp_z="580 : 290 : 1"
       inkscape:persp3d-origin="290 : 193.33333 : 1"
       id="perspective2441" />
    <inkscape:perspective
       id="perspective3452"
       inkscape:persp3d-origin="30 : 20 : 1"
       inkscape:vp_z="60 : 30 : 1"
       inkscape:vp_y="0 : 1000 : 0"
       inkscape:vp_x="0 : 30 : 1"
       sodipodi:type="inkscape:persp3d" />
    <symbol
       viewBox="244.5 110 489 219.9"
       id="symbol-university">
      <path
         id="path4460"
         d="M79,43l57,119c0,0,21-96,104-96s124,106,124,106l43-133l82-17L0,17L79,43z" />
      <path
         id="path4462"
         d="M94,176l-21,39"
         stroke-width="20"
         stroke="#000000"
         fill="none" />
      <path
         id="path4464"
         d="M300,19c0,10.5-22.6,19-50.5,19S199,29.5,199,19s22.6-19,50.5-19S300,8.5,300,19z" />
      <path
         id="path4466"
         d="M112,216l-16-38L64,88c0,0-9-8-4-35s16-24,16-24"
         stroke-width="20"
         stroke="#000000"
         ill="none" />
    </symbol>
    <inkscape:perspective
       id="perspective4471"
       inkscape:persp3d-origin="372.04724 : 350.78739 : 1"
       inkscape:vp_z="744.09448 : 526.18109 : 1"
       inkscape:vp_y="0 : 1000 : 0"
       inkscape:vp_x="0 : 526.18109 : 1"
       sodipodi:type="inkscape:persp3d" />
    <inkscape:perspective
       id="perspective4668"
       inkscape:persp3d-origin="6 : 4 : 1"
       inkscape:vp_z="12 : 6 : 1"
       inkscape:vp_y="0 : 1000 : 0"
       inkscape:vp_x="0 : 6 : 1"
       sodipodi:type="inkscape:persp3d" />
  </defs>
  <g
     id="g1327">
    <path
       d="M 66.275,1.768 C 24.94,1.768 1.704,23.139 1.704,66.804 L 1.704,516.927 C 1.704,557.771 22.599,579.156 63.896,579.156 L 515.92,579.156 C 557.227,579.156 578.149,558.841 578.149,516.927 L 578.149,66.804 C 578.149,24.203 557.227,1.768 514.628,1.768 C 514.624,1.768 66.133,1.625 66.275,1.768 z "
       style="fill:#111;stroke:#eee;stroke-width:3.40799999"
       id="path1329" />
  </g>
  <g
     id="Layer_1">
    <g
       id="g9">
      <path
         style="fill:#ffffff"
         inkscape:connector-curvature="0"
         d="m 138.273,229.589 311,0 16.218,259.723 73.496,0 -50.868,-255.514 -0.055,0 C 462.427,150.91 385.199,90.688 293.89,90.688 c -91.635,0 -169.095,60.649 -194.456,143.993 l -0.008,0 0,0.027 -58.414,254.603 71.996,0 25.265,-259.722 z"
         id="path11" />
      <g
         id="g13">
        <path
           style="fill:#ffffff"
           inkscape:connector-curvature="0"
           d="m 418.087,370.049 -8.363,-69.488 c -0.269,-11.149 -9.424,-20.138 -20.637,-20.138 l -69.07,0 -2.812,-8.483 c 0,-7.222 -5.853,-13.075 -13.073,-13.075 l -28.555,0 c -7.221,0 -13.073,5.853 -13.073,13.075 l -1.944,8.483 -69.647,0 c -11.213,0 -20.367,8.989 -20.637,20.138 l -8.364,69.488 c -17.975,7.479 -7.09,24.31 -7.09,24.31 l 55.733,94.953 158.89,0 55.734,-94.953 c -10e-4,-10e-4 10.883,-16.831 -7.092,-24.31 z M 185.408,301.066 c 0,-3.037 2.47,-5.506 5.504,-5.506 l 198.174,0 c 3.034,0 5.505,2.469 5.505,5.506 l 0,0.453 7.538,62.64 c -35.616,-13.051 -112.131,-41.015 -112.131,-41.015 0,0 -76.515,27.964 -112.131,41.015 l 7.541,-62.64 0,-0.453 z"
           id="path15" />
        <path
           style="fill:#ffffff"
           inkscape:connector-curvature="0"
           d="m 282.792,305.883 -74.233,0 c -5.935,0 -10.746,4.811 -10.746,10.744 l -3.635,30.207 c 30.221,-11.063 72.02,-26.344 88.615,-32.409 l 0,-8.542 z"
           id="path17" />
        <path
           style="fill:#ffffff"
           inkscape:connector-curvature="0"
           d="m 382.186,316.627 c 0,-5.934 -4.811,-10.744 -10.746,-10.744 l -74.232,0 0,8.543 c 16.597,6.066 58.395,21.346 88.614,32.408 l -3.636,-30.207 z"
           id="path19" />
      </g>
    </g>
  </g>
</svg>

<svg width="580" height="580" viewBox="0 0 580 580" fill="none" xmlns="http://www.w3.org/2000/svg">
<g clip-path="url(#clip0)">
<path d="M66.275 1.7679C24.94 1.7679 1.704 23.1389 1.704 66.8039V516.927C1.704 557.771 22.599 579.156 63.896 579.156H515.92C557.227 579.156 578.149 558.841 578.149 516.927V66.8039C578.149 24.2029 557.227 1.7679 514.628 1.7679C514.624 1.7679 66.133 1.6249 66.275 1.7679Z" fill="#111111" stroke="#EEEEEE" stroke-width="3.408"/>
<path d="M138.273 229.589H449.273L465.491 489.312H538.987L488.119 233.798H488.064C462.427 150.91 385.199 90.688 293.89 90.688C202.255 90.688 124.795 151.337 99.434 234.681H99.426V234.708L41.012 489.311H113.008L138.273 229.589Z" fill="white"/>
<path d="M418.087 370.049L409.724 300.561C409.455 289.412 400.3 280.423 389.087 280.423H320.017L317.205 271.94C317.205 264.718 311.352 258.865 304.132 258.865H275.577C268.356 258.865 262.504 264.718 262.504 271.94L260.56 280.423H190.913C179.7 280.423 170.546 289.412 170.276 300.561L161.912 370.049C143.937 377.528 154.822 394.359 154.822 394.359L210.555 489.312H369.445L425.179 394.359C425.178 394.358 436.062 377.528 418.087 370.049V370.049ZM185.408 301.066C185.408 298.029 187.878 295.56 190.912 295.56H389.086C392.12 295.56 394.591 298.029 394.591 301.066V301.519L402.129 364.159C366.513 351.108 289.998 323.144 289.998 323.144C289.998 323.144 213.483 351.108 177.867 364.159L185.408 301.519V301.066V301.066Z" fill="white"/>
<path d="M282.792 305.883H208.559C202.624 305.883 197.813 310.694 197.813 316.627L194.178 346.834C224.399 335.771 266.198 320.49 282.793 314.425V305.883H282.792Z" fill="white"/>
<path d="M382.186 316.627C382.186 310.693 377.375 305.883 371.44 305.883H297.208V314.426C313.805 320.492 355.603 335.772 385.822 346.834L382.186 316.627V316.627Z" fill="white"/>
</g>
<defs>
<clipPath id="clip0">
<path d="M0 0H580V580H0V0Z" fill="white"/>
</clipPath>
</defs>
</svg>
